icons/op-view-split2-24.svg

<svg width="24" height="24" viewBox="0 0 24 24" fill="none" xmlns="http://www.w3.org/2000/svg">
<path d="M8.86967 7L13.2381 9.33054L8.86967 11.744L4.50093 9.33054L8.86967 7Z" fill="black"/>
<path d="M20 9.76639V7H15.1303V9.76639H20Z" fill="black"/>
<path d="M20 13.224V10.4579H15.1303V13.224H20Z" fill="black"/>
<path d="M20 13.9155V16.6819H15.1303V13.9155H20Z" fill="black"/>
<path d="M9.56525 17L13.739 14.7801V10.6306L9.56525 12.9404V17Z" fill="black"/>
<path d="M4 14.7801V10.6306L8.17405 12.9404V17L4 14.7801Z" fill="black"/>
</svg>

<svg xmlns="http://www.w3.org/2000/svg" width="24" height="24" viewBox="0 0 24 24"><path d="m8.87 7 4.368 2.331-4.368 2.413-4.369-2.413L8.87 7ZM20 9.766V7h-4.87v2.766H20Zm0 3.458v-2.766h-4.87v2.766H20Zm0 .691v2.767h-4.87v-2.767H20ZM9.565 17l4.174-2.22v-4.149L9.565 12.94V17ZM4 14.78v-4.149l4.174 2.309V17L4 14.78Z"/></svg>
